light/build/img/logo-3.svg

<svg width="56" height="50" viewBox="0 0 56 50" fill="" xmlns="http://www.w3.org/2000/svg">
    <path d="M40.1619 15.0664L40.4083 15.3539C40.86 15.8878 41.6813 15.9699 42.2151 15.5182L49.3605 9.52261C49.8944 9.07089 49.9765 8.24958 49.5248 7.71572L49.2784 7.3872C48.8267 6.85335 48.0054 6.77122 47.4715 7.22294L40.3261 13.2596C39.7512 13.7113 39.7102 14.5326 40.1619 15.0664ZM44.7612 20.4871C45.0897 21.1441 45.87 21.3905 46.486 21.062L54.8633 16.9144C55.5204 16.5859 55.7668 15.8056 55.4382 15.1896L55.274 14.8201C54.9454 14.163 54.1652 13.9166 53.5492 14.2451L45.1719 18.3927C44.5148 18.7213 44.2684 19.5015 44.5969 20.1175L44.7612 20.4871ZM43.2007 0.488202L42.8722 0.24181C42.2973 -0.168845 41.476 -0.0456486 41.0653 0.529268L35.5625 8.04425C35.1519 8.61917 35.2751 9.44048 35.85 9.85113L36.1785 10.0975C36.7534 10.5082 37.5747 10.385 37.9854 9.81006L43.5292 2.29508C43.8988 1.72017 43.7756 0.898857 43.2007 0.488202ZM0.451562 44.7157L4.27065 49.274C4.96876 50.0953 6.24179 50.2595 7.10417 49.5614L26.6924 33.1353L20.3272 25.4971L18.9721 26.6469C18.3972 25.9488 17.4937 25.9488 16.8777 26.4826L15.5226 27.6325C14.9066 28.1663 14.7423 29.0698 15.3583 29.7268L0.73902 41.9233C-0.123355 42.6214 -0.246551 43.8533 0.451562 44.7157ZM23.4893 21.5548C23.325 22.2529 22.709 23.2795 22.052 24.0187L28.4993 31.698C29.3206 31.1641 30.4294 30.7124 31.1685 30.6713L32.7701 30.5892L36.9588 30.3428C38.1907 30.2607 39.8744 29.7268 41.1474 28.9876L26.8977 11.9455C25.9532 13.0953 25.1319 14.6147 24.8444 15.8056L23.8589 19.9532L23.4893 21.5548ZM28.5814 10.426L42.9543 27.5503C43.8167 26.4416 43.8167 24.84 42.8722 23.7313L32.2773 11.1242C31.3739 10.0154 29.8134 9.769 28.5814 10.426Z" fill=""/>
</svg>

<svg width="56" height="50" xmlns="http://www.w3.org/2000/svg"><path d="m40.162 15.066.246.288c.452.534 1.273.616 1.807.164l7.145-5.995c.534-.452.617-1.273.165-1.807l-.247-.329c-.451-.534-1.273-.616-1.806-.164l-7.146 6.037c-.575.451-.616 1.273-.164 1.806Zm4.6 5.421c.328.657 1.108.904 1.724.575l8.377-4.148c.657-.328.904-1.108.575-1.724l-.164-.37c-.329-.657-1.109-.903-1.725-.575l-8.377 4.148c-.657.328-.904 1.108-.575 1.724l.164.37ZM43.2.488l-.329-.246c-.575-.41-1.396-.288-1.807.287l-5.502 7.515c-.411.575-.288 1.396.287 1.807l.328.246c.575.411 1.397.288 1.807-.287l5.544-7.515c.37-.575.247-1.396-.328-1.807ZM.45 44.716l3.82 4.558c.698.821 1.97.986 2.833.287l19.588-16.426-6.365-7.638-1.355 1.15c-.575-.698-1.478-.698-2.094-.164l-1.355 1.15c-.616.533-.78 1.437-.165 2.094L.74 41.923a1.968 1.968 0 0 0-.287 2.793ZM23.49 21.555c-.164.698-.78 1.724-1.437 2.464l6.447 7.679c.822-.534 1.93-.986 2.67-1.027l1.601-.082 4.189-.246c1.232-.082 2.915-.616 4.188-1.355l-14.25-17.043c-.944 1.15-1.765 2.67-2.053 3.86l-.985 4.148-.37 1.602Zm5.092-11.129L42.954 27.55a3.031 3.031 0 0 0-.082-3.819L32.277 11.124c-.903-1.109-2.464-1.355-3.696-.698Z"/></svg>
